X:4431
T:Mrs Grace Bowie
O:england
C:Adam Rennie (?)
S:78rpm record
M:6/8
L:1/8
K:A
z|A2c E2c|A2c E2c|AGA cBA|G2B F3|G2B F2A|G2B F2G|ABA G2F|
ECD EFG|A2E c2E|A2E c2E|AGA cBA|G2B F3|G2B F2A|G2B F2A|
GFE c2B|A3 A2||ECD E2A|c2c c3|c=c^c d2c|B3 F2A|1G2G F2E|
G2G G3|d2d c2B|AGF E3:|2G2B F2A|GAB F2f|gfe dcB|A3 A2|]


